!!!SOCIAL_FUNCTION: unclassified songs
!!!PDT:	1929
!!!LING_GROUP: Caddoan
!!!LANG: Non-Tone
!!!REG: Oklahoma
!!!COM: Anon.
!!!OTL: Father Gave Me a Pipe
!!!ODT: <1920//
!!!MPN: Tsastawinahiigat [She led a phony into the ceremony, Effie Blain]
!!!MLC: Pawnee, Oklahoma, United States of America
!! Song was recorded either 1919 or 1920.
!!!AGN: monody
!!!AMT: simple triple
!!!RWG: Transcribed pitches, durations, and meters are only approximate.
!! Drum not recorded
**kern	**silbe	**words	**words
*ICvox	*LPawnee	*LPawnee	*LEnglish
*Ifemale	*	*	*
*clefG2	*	*	*
*k[b-]	*	*	*
*M3/4	*M3/4	*M3/4	*M3/4
*MM104	*MM104	*MM104	*MM104
*[A,A]	*[A,A]	*[A,A]	*[A,A]
*>A	*>A	*>A	*>A
4a	He	He	[exclamation]
=1	=1	=1	=1
4f	a	a	[exclamation]
(8f	he	he	[exclamation]
8e)	|	.	.
(8f	he	he	[exclamation]
8e)	|	.	.
=2	=2	=2	=2
4d	a	a	[exclamation]
4d	he	he	[exclamation]
(8f	he	he	[exclamation]
8d)	|	.	.
=3	=3	=3	=3
4d	a	a	[exclamation]
4d	he	he	[exclamation]
(8d	he	he	[exclamation]
8A)	|	.	.
=4	=4	=4	=4
4A	a	a	[exclamation]
4A	he	he	[exclamation]
(8f	he	he	[exclamation]
8e)	|	.	.
=5	=5	=5	=5
4d	a	a	[exclamation]
4d	he	he	[exclamation]
(8d	he	he	[exclamation]
8A)	|	.	.
=6	=6	=6	=6
4A	a	a	[exclamation]
4A	he	he	[exclamation]
4a	A-	atias	father
=7	=7	=7	=7
4f	-ti-	.	.
(8f	-as	.	.
8e)	|	.	.
8f	ti	ti	he
8e	ku	ku	me
=8	=8	=8	=8
4d	hak	hak	pipe
4d	ku	ku	gave
8f	ti	ti	he
8e	ku	ku	me
=9	=9	=9	=9
4d	hak	hak	pipe
4d	ku	ku	gave
(8d	tu	tu	is
8A)	|	.	.
=10	=10	=10	=10
4A	ra-	rahe	good
4A	-he	.	.
(8f	he	he	[exclamation]
8e)	|	.	.
=11	=11	=11	=11
4d	a	a	[exclamation]
4d	he	he	[exclamation]
(8d	he	he	[exclamation]
8A)	|	.	.
=12	=12	=12	=12
4A	a	a	[exclamation]
4A	he	he	[exclamation]
(8f	he	he	[exclamation]
8e)	|	.	.
=13	=13	=13	=13
4d	a	a	[exclamation]
4d	he	he	[exclamation]
(8d	he	he	[exclamation]
8A)	|	.	.
=14	=14	=14	=14
4A	a	a	[exclamation]
4A	he	he	[exclamation]
==:|!	==:|!	==:|!	==:|!
*-	*-	*-	*-
!!!HAO:    The next song belongs to a very old woman named Ciiha'rurees whose father
!!!HAO: was a chief.  The singers at the drum sometimes start this song so that
!!!HAO: she can dance.  It was formerly used in a "dance of the chiefs" in which
!!!HAO: the daughters of chiefs took part.
!!!HTX: Father is good,
!!!HTX: He gave me a pipe,
!!!HTX: He is good.
!!!CNT: Pawnee
!!!TXO: Pawnee
!!!OCY: United States
!!!OCL: Frances Densmore
!!!YOR: Frances Densmore, "Pawnee Music"
!!!YOR: Bulletin 93, page 115, No. 85
!!!PPR: Smithsonian Institution, Bureau of American Ethnology
!!!PPR: Government Printing Office
!!!PDT: 1926
!!!PPP: Washington, DC, United States of America
!!!YEC: Electronic Copyright 2000 David Huron
!!!YER: September 2000
!!!YEN: United States of America
!!!ENC: David Huron
!!!RDT: September 10, 2000
!!!EEV: Release 1.0
!!!AIN: vox
